X: 54
T: Pollonesse #54
M: 3/4
L: 1/16
K: Bb
Q:120
[D4B4] [D2B2]dc [D2B2]dc|[D2B2][D2B2] [F2c2][F2c2] [F4d4]|[F4c4] [F2c2]ed [F2c2]ed|[F2c2][F2c2] [F2d2][F2d2] [G4e4]|
dBdf bfdf fece|dBdf bfdf fece|BAcB dced fegf|[f2c2]gf edcB BAGF|
[D4B4] [D2B2]dc [D2B2]dc|[D2B2][D2B2] [F2c2][F2c2] [F4d4]|[F4c4] [F2c2]ed [F2c2]ed|[F2c2][F2c2] [F2d2][F2d2] [G4e4]|
dBdf bfdf fece|dBdf bfdf fece|BAcB dced fegf|=efec [c6F6] B2:|
[D2B2][F2c2] [F2d2][F2d2] d2ed|[F2c2][F2c2] [F2d2][DB][Fc] [F4d4]|[D2B2][F2c2] [F2d2][F2d2] d2ed|[F2c2][F2c2] [F2d2][DB][Fc] [F4d4]|
f4cf^eg f4|f4cf^eg f4|[c4g4] g2ab bagf|gb=eg [c4g4] [f4A4]|
fgfe [d2G2][d2G2] [d2G2][d2G2]|g2g2 gfed [G4e4]|[Ge]fed [F2c2][F2c2] [F2c2][F2c2]|f2f2 fgfe d4|
[D4B4] [D2B2]dc [D2B2]dc|[D2B2][D2B2] [F2c2][F2c2] [F4d4]|[F4c4] [F2c2]ed [F2c2]ed|[F2c2][F2c2] [F2d2][F2d2] [G4e4]|
dBdf bfdf fece|dBdf bfdf fece|BAcB dced fegf|=efec [c6F6] B2:|

